X: 37045
T: Silver Heels Clog, The
R: hornpipe
M: 4/4
K: Gmajor
g2 d>c B>dc>A|G>BD>G B>DG>B|A>CE>A c>Af>e|^d>ec>A F2 (3=def|
g>Gd>c (3Bcd c>A|G>BD>G B2 G>B|A>CE>A c2 e>d|^c>d =c>A G2:|
G,2 B>G e>B (3gfe|^d>ec>A F>AF>D|E>BG>E B>Ge>d|(3^ca^g (3a=ge d2 =c2|
(3Bcd G>B D>G (3Bcd|(3cde G>c E>G (3cde|d>bg>d (3Bcd g>G|(3AGF c>F G2:|

